app/public/dtpr-icons/cloud.svg

<svg width="36" height="36" viewBox="0 0 36 36" fill="none" xmlns="http://www.w3.org/2000/svg">
<path fill-rule="evenodd" clip-rule="evenodd" d="M17.6799 18.7667C17.8623 18.9491 18.1441 18.9491 18.3265 18.7667L20.8681 16.2251C21.1509 15.9341 20.95 15.4422 20.5401 15.4422H18.9107V6.15017C18.9107 5.64698 18.5028 5.23911 17.9996 5.23911C17.4974 5.23911 17.0896 5.64698 17.0896 6.15017V15.4422H15.457C15.0471 15.4422 14.8462 15.9341 15.1383 16.2159L17.6799 18.7667Z" fill="black"/>
<mask id="path-2-inside-1" fill="white">
<path fill-rule="evenodd" clip-rule="evenodd" d="M25.748 21C25.9125 20.3608 26 19.6906 26 19H32H34V21V30C34 32.2091 32.2091 34 30 34H6C3.79086 34 2 32.2091 2 30V21V19H4H10C10 19.6906 10.0875 20.3608 10.252 21H6H4V23V30C4 31.1046 4.89543 32 6 32H30C31.1046 32 32 31.1046 32 30V23V21H30H25.748Z"/>
</mask>
<path d="M26 19V18H25V19H26ZM25.748 21L24.7795 20.7507L24.458 22H25.748V21ZM34 19H35V18H34V19ZM2 19V18H1V19H2ZM10 19H11V18H10V19ZM10.252 21V22H11.542L11.2205 20.7507L10.252 21ZM4 21V20H3V21H4ZM32 21H33V20H32V21ZM25 19C25 19.6058 24.9233 20.1922 24.7795 20.7507L26.7164 21.2493C26.9017 20.5293 27 19.7754 27 19H25ZM26 20H32V18H26V20ZM32 20H34V18H32V20ZM33 19V21H35V19H33ZM33 21V30H35V21H33ZM33 30C33 31.6569 31.6569 33 30 33V35C32.7614 35 35 32.7614 35 30H33ZM30 33H6V35H30V33ZM6 33C4.34315 33 3 31.6569 3 30H1C1 32.7614 3.23858 35 6 35V33ZM3 30V21H1V30H3ZM3 21V19H1V21H3ZM2 20H4V18H2V20ZM4 20H10V18H4V20ZM11.2205 20.7507C11.0767 20.1922 11 19.6058 11 19H9C9 19.7754 9.09829 20.5293 9.2836 21.2493L11.2205 20.7507ZM10.252 20H6V22H10.252V20ZM6 20H4V22H6V20ZM3 21V23H5V21H3ZM3 23V30H5V23H3ZM3 30C3 31.6569 4.34315 33 6 33V31C5.44772 31 5 30.5523 5 30H3ZM6 33H30V31H6V33ZM30 33C31.6569 33 33 31.6569 33 30H31C31 30.5523 30.5523 31 30 31V33ZM33 30V23H31V30H33ZM33 23V21H31V23H33ZM32 20H30V22H32V20ZM30 20H25.748V22H30V20Z" fill="black" mask="url(#path-2-inside-1)"/>
<path d="M26 19C26 23.4183 22.4183 27 18 27C13.5817 27 10 23.4183 10 19" stroke="black" stroke-width="2"/>
<rect x="3" y="3" width="30" height="30" rx="3" stroke="black" stroke-width="2"/>
</svg>

<svg xmlns="http://www.w3.org/2000/svg" width="36" height="36" fill="none"><path fill="#000" fill-rule="evenodd" d="M17.68 18.767a.45.45 0 0 0 .646 0l2.542-2.542a.46.46 0 0 0-.328-.783h-1.63V6.15a.911.911 0 1 0-1.82 0v9.292h-1.633a.45.45 0 0 0-.319.774z" clip-rule="evenodd"/><mask id="a" fill="#fff"><path fill-rule="evenodd" d="M25.748 21c.165-.64.252-1.31.252-2h8v11a4 4 0 0 1-4 4H6a4 4 0 0 1-4-4V19h8c0 .69.088 1.36.252 2H4v9a2 2 0 0 0 2 2h24a2 2 0 0 0 2-2v-9h-6.252" clip-rule="evenodd"/></mask><path fill="#000" d="M26 19v-1h-1v1zm-.252 2-.969-.25-.321 1.25h1.29zM34 19h1v-1h-1zM2 19v-1H1v1zm8 0h1v-1h-1zm.252 2v1h1.29l-.322-1.25zM4 21v-1H3v1zm28 0h1v-1h-1zm-7-2c0 .606-.077 1.192-.22 1.75l1.936.5c.186-.72.284-1.475.284-2.25zm1 1h6v-2h-6zm6 0h2v-2h-2zm1-1v2h2v-2zm0 2v9h2v-9zm0 9a3 3 0 0 1-3 3v2a5 5 0 0 0 5-5zm-3 3H6v2h24zM6 33a3 3 0 0 1-3-3H1a5 5 0 0 0 5 5zm-3-3v-9H1v9zm0-9v-2H1v2zm-1-1h2v-2H2zm2 0h6v-2H4zm7.22.75A7 7 0 0 1 11 19H9c0 .775.098 1.53.284 2.25zm-.968-.75H6v2h4.252zM6 20H4v2h2zm-3 1v2h2v-2zm0 2v7h2v-7zm0 7a3 3 0 0 0 3 3v-2a1 1 0 0 1-1-1zm3 3h24v-2H6zm24 0a3 3 0 0 0 3-3h-2a1 1 0 0 1-1 1zm3-3v-7h-2v7zm0-7v-2h-2v2zm-1-3h-2v2h2zm-2 0h-4.252v2H30z" mask="url(#a)"/><path stroke="#000" stroke-width="2" d="M26 19a8 8 0 1 1-16 0"/><rect width="30" height="30" x="3" y="3" stroke="#000" stroke-width="2" rx="3"/></svg>
